X:11
T:Connaught Heifers/ Kitty Goes a-Milking
T:Connaught Heifers
M:4/4
K:D
F3G A2BG|A2BG AGFD|F3G AGGF|DGGB =cAAG|
FDFG A2 BG|A2BG AGFD|F3G AGGF|DGGB =cAAg||
fdec d3=cA|B=cBG ABde|f2ec d2=cA|BGG2 AGFd|
fgec d2=cA|B/c/d BG ABde|f2ecd2=cA|BGG2 AGFD||
T:Kitty Goes a-Milking
M:4/4
K:G
||:dGG2 d2cA|dGG2 FGAB|dGG2 d2eg|fdcA GABc:||
dgg2 agg2|dggf d2cA|dgg2 agg2|dcAB c2Bc|
dgg2 agg2|dggf d2cA|defg a3g|fdcA G4|

